svg/emoji_u1f9c2.svg

<?xml version="1.0" encoding="utf-8"?>
<!-- Generator: Adobe Illustrator 25.2.3, SVG Export Plug-In . SVG Version: 6.00 Build 0)  -->
<svg version="1.1" id="Layer_3" xmlns="http://www.w3.org/2000/svg" xmlns:xlink="http://www.w3.org/1999/xlink" x="0px" y="0px"
	 viewBox="0 0 128 128" style="enable-background:new 0 0 128 128;" xml:space="preserve">
<path style="fill:#DCEDF6;" d="M48.83,32.34l-9.85,12.99l-8.14,63.68l14.85,10.71c0,0,26.56,0.86,27.84,0.29s21.99-9.57,21.99-9.57
	l-8-65.82L76.53,31.49L48.83,32.34z"/>
<path style="fill:#E0E0E0;" d="M37.41,69.04c0,0,1.86-4.28,12.99-5.85c6.02-0.85,9.26,0.8,13.72,0.68
	c5.76-0.15,9.24-1.32,14.83,0.17c7.29,1.95,9.64,7.15,9.64,7.15s2.93,9.41,2.21,9.41s-56.54,8.42-56.54,8.42L37.41,69.04z"/>
<path style="fill:#FFFFFF;" d="M31.61,98.9c0,0,3.04,13.76,32.84,13.92c17.68,0.09,22.17-3.94,24.53-5.32
	c2.36-1.39,5.2-5.07,5.2-5.07l-1.93-17.41L90.41,73.4c0,0-3.12-1.82-7.55-0.71c-2.08,0.52-6.77,3.02-10.27,4.49
	s-6.69,3.34-15.17,2.77c-7.77-0.52-12.39-6.44-15.16-8.4s-5.54-2.85-5.54-2.85L31.61,98.9z"/>
<path style="fill:#E0E0E0;" d="M70.75,89.52c-1.05,0-1.85,0.53-2.08,1.91s0.97,2.15,1.89,2.01c1.2-0.19,1.57-1.34,1.57-2.2
	C72.13,90.38,71.62,89.52,70.75,89.52z"/>
<path style="fill:#E0E0E0;" d="M81.31,90.54c-0.54,1.05,0.09,2.58,1.29,2.81c1.2,0.23,2.1-0.78,2.03-1.94
	C84.54,89.8,82.14,88.92,81.31,90.54z"/>
<path style="fill:#E0E0E0;" d="M84.31,99.76c-0.72,0.87-0.14,2.86,1.38,2.91c1.52,0.05,2.11-1.69,1.38-2.81
	C86.48,98.93,85.23,98.65,84.31,99.76z"/>
<path style="fill:#E0E0E0;" d="M67.8,107.37c0,1.02,0.55,1.75,1.8,1.71c1.25-0.05,1.43-1.38,1.34-2.08
	c-0.09-0.69-0.46-1.38-1.61-1.38S67.8,106.77,67.8,107.37z"/>
<path style="fill:#E0E0E0;" d="M62.35,99.49c-0.74-0.83-2.17-0.64-2.91,0.32c-0.6,0.78-0.56,2.93,1.48,2.86
	C62.31,102.62,63.55,100.82,62.35,99.49z"/>
<path style="fill:#E0E0E0;" d="M40.16,102.71c-0.75,0.82-0.6,2.17,0.32,2.86c0.92,0.69,2.17,0.37,2.54-0.37
	c0.35-0.71,0.09-1.94-0.55-2.44S40.72,102.11,40.16,102.71z"/>
<path style="fill:#A6CFD6;" d="M99.63,109.81c-0.18-1.32-2.91-11.28-4.49-21.93C93.55,77.22,91.35,57.04,91,50.35
	c-0.35-6.69-1.98-9.44-3.31-10.5c-1.32-1.06-42.85-4.74-42.85-4.74s-4.95,2.79-6.69,5.29c-1.23,1.76-1.5,2.73-1.94,5.29
	c-0.44,2.55-1.32,13.3-1.5,16.65c-0.18,3.35-1.94,17.09-3.17,23.26c-1.23,6.17-3.61,20.97-3.88,22.64
	c-0.26,1.67,0.35,4.23,1.85,5.37c1.5,1.15,15.96,9.5,17.81,10.03c1.85,0.53,28.55,0.68,30.64,0.28c2.51-0.49,19.14-7.97,20.61-9.34
	C99.33,113.87,99.81,111.13,99.63,109.81z M49.82,75.2c-0.62,9.14-3.11,36.37-4.88,37.61c-1.77,1.25-10.6-4.26-11.54-5.82
	s2.49-17.56,3.53-26.39c0.61-5.2,2.83-31.16,3.64-33.15c0.47-1.14,2.94,0.44,5.34,1.61c2.49,1.21,4.92,1.93,5.18,2.76
	C51.61,53.49,50.44,66.06,49.82,75.2z M73.4,116.25c-1.25,0.52-5.51,0.67-9.88,0.72c-4.82,0.05-8.8-0.37-10.45-1.84
	c-1.97-1.77-0.46-13.83,0.37-25.89c0.63-9.14,2.21-34.64,2.48-36.06c0.31-1.66,3.98,0,8.14,0c4.78,0,8.2-1.43,8.41,0.34
	c0.21,1.77,0.51,12.34,0.92,18.89c0.42,6.55,2.18,39.28,2.18,41.04S74.65,115.73,73.4,116.25z M93.67,107.83
	c-0.31,2.39-9.88,6.63-11.01,5.71c-1.56-1.25-2.91-18.18-3.74-26.81c-0.83-8.62-2.18-32.69-2.18-34.08c0-1.26,2.58-1.62,4.64-2.78
	c2.15-1.21,4.08-2.74,4.4-2.21c0.62,1.04,1.35,14.24,2.81,29.61C90.03,92.66,93.98,105.44,93.67,107.83z"/>
<path style="fill:#6CA4AE;" d="M55.54,32.1L42.6,36.13c0,0-1.78,1.21-2.76,2.25c-0.84,0.89-1.69,2.01-1.69,2.01
	s10.6,8.65,25.19,9.14c14.59,0.49,25.11-8.94,25.11-8.94s-1-1.41-2.22-2.27c-1.22-0.85-6.63-3.78-6.63-3.78L55.54,32.1z"/>
<path style="fill:#AEB0B1;" d="M42.17,32.53c0,0-1.73,1.99-0.37,4.64c1.55,3.02,8.42,8.41,21.55,8.06
	c16.18-0.43,20.96-7.57,21.25-8.06c0.43-0.73,0.92-1.83,0.98-3.17c0.06-1.34-0.85-2.14-0.85-2.14s3.85-4.52,3.97-10.99
	S85.7,7.8,75.01,4.75c-9.24-2.64-20.7-0.98-26.13,0.73c-4.46,1.4-11,6.11-11.11,14.65C37.65,29.41,42.17,32.53,42.17,32.53z"/>
<path style="fill:#E0E0E0;" d="M42.82,14.65c-0.28,4.51,4.79,7.64,20.9,7.92C81,22.88,83.87,17.2,83.99,14.82
	c0.15-2.84-2.99-9.4-20.51-9.52C47.17,5.18,42.97,12.14,42.82,14.65z"/>
<path style="fill:#E0E0E0;" d="M44.3,34.42c-0.6,1.41,4.79,7.85,18.89,7.85s20.28-6.23,19.02-7.73c-0.85-1.02-6.85,4.33-18.75,4.03
	C47.28,38.15,45.16,32.41,44.3,34.42z"/>
<path style="fill:#5E6367;" d="M48.99,14.35c0.06,1.89,2.14,2.23,4.18,2.23c2.29,0,4.06-0.77,4.09-2.14
	c0.03-1.36-1.15-2.63-4.33-2.51C50.26,12.04,48.94,12.99,48.99,14.35z"/>
<path style="fill:#5E6367;" d="M59.11,9.28c-0.1,1.48,1.55,2.48,4.15,2.32c2.94-0.17,4.06-1.15,4.09-2.42
	c0.03-1.43-1.92-2.26-4.27-2.17C60.72,7.11,59.2,7.92,59.11,9.28z"/>
<path style="fill:#5E6367;" d="M69.23,15.28c0.09,1.86,2.39,2.14,3.99,2.07c2.97-0.12,3.87-1.08,3.87-2.42
	c0-1.7-1.95-2.38-3.87-2.42S69.14,13.43,69.23,15.28z"/>
</svg>

<?xml version='1.0' encoding='utf-8'?>
<svg xmlns="http://www.w3.org/2000/svg" width="128px" height="128px" version="1.1" xml:space="preserve" style="fill-rule:evenodd;clip-rule:evenodd;stroke-linejoin:round;stroke-miterlimit:2;" viewBox="0 0 128 128"><path d="M48.83,32.34L38.98,45.33L30.84,109.01L45.69,119.72C45.69,119.72 72.25,120.58 73.53,120.01C74.81,119.44 95.52,110.44 95.52,110.44L87.52,44.62L76.53,31.49L48.83,32.34Z" style="fill:#dcedf6;fill-rule:nonzero;" /><path d="M37.41,69.04C37.41,69.04 39.27,64.76 50.4,63.19C56.42,62.34 59.66,63.99 64.12,63.87C69.88,63.72 73.36,62.55 78.95,64.04C86.24,65.99 88.59,71.19 88.59,71.19C88.59,71.19 91.52,80.6 90.8,80.6C90.08,80.6 34.26,89.02 34.26,89.02L37.41,69.04Z" style="fill:#e0e0e0;fill-rule:nonzero;" /><path d="M31.61,103.73C31.61,103.73 34.65,117.49 64.45,117.65C82.13,117.74 86.62,113.71 88.98,112.33C91.34,110.94 94.18,107.26 94.18,107.26L92.25,85.02L90.41,73.4C90.41,73.4 87.29,71.58 82.86,72.69C80.78,73.21 76.09,75.71 72.59,77.18C69.09,78.65 65.9,80.52 57.42,79.95C49.65,79.43 45.03,73.51 42.26,71.55C39.49,69.59 36.72,68.7 36.72,68.7L31.61,103.73Z" style="fill:#fff;fill-rule:nonzero;" /><path d="M70.75,89.52C69.7,89.52 68.9,90.05 68.67,91.43C68.44,92.81 69.64,93.58 70.56,93.44C71.76,93.25 72.13,92.1 72.13,91.24C72.13,90.38 71.62,89.52 70.75,89.52Z" style="fill:#e0e0e0;fill-rule:nonzero;" /><path d="M81.31,90.54C80.77,91.59 81.4,93.12 82.6,93.35C83.8,93.58 84.7,92.57 84.63,91.41C84.54,89.8 82.14,88.92 81.31,90.54Z" style="fill:#e0e0e0;fill-rule:nonzero;" /><path d="M84.31,99.76C83.59,100.63 84.17,102.62 85.69,102.67C87.21,102.72 87.8,100.98 87.07,99.86C86.48,98.93 85.23,98.65 84.31,99.76Z" style="fill:#e0e0e0;fill-rule:nonzero;" /><path d="M67.8,107.37C67.8,108.39 68.35,109.12 69.6,109.08C70.85,109.03 71.03,107.7 70.94,107C70.85,106.31 70.48,105.62 69.33,105.62C68.18,105.62 67.8,106.77 67.8,107.37Z" style="fill:#e0e0e0;fill-rule:nonzero;" /><path d="M62.35,99.49C61.61,98.66 60.18,98.85 59.44,99.81C58.84,100.59 58.88,102.74 60.92,102.67C62.31,102.62 63.55,100.82 62.35,99.49Z" style="fill:#e0e0e0;fill-rule:nonzero;" /><path d="M40.16,102.71C39.41,103.53 39.56,104.88 40.48,105.57C41.4,106.26 42.65,105.94 43.02,105.2C43.37,104.49 43.11,103.26 42.47,102.76C41.83,102.26 40.72,102.11 40.16,102.71Z" style="fill:#e0e0e0;fill-rule:nonzero;" /><path d="M99.63,109.81C99.45,108.49 96.72,98.53 95.14,87.88C93.55,77.22 91.35,57.04 91,50.35C90.65,43.66 89.02,40.91 87.69,39.85C86.37,38.79 44.84,35.11 44.84,35.11C44.84,35.11 39.89,37.9 38.15,40.4C36.92,42.16 36.65,43.13 36.21,45.69C35.77,48.24 34.89,58.99 34.71,62.34C34.53,65.69 32.77,79.43 31.54,85.6C30.31,91.77 27.93,106.57 27.66,108.24C27.4,109.91 28.01,112.47 29.51,113.61C31.01,114.76 45.47,123.11 47.32,123.64C49.17,124.17 75.87,124.32 77.96,123.92C80.47,123.43 97.1,115.95 98.57,114.58C99.33,113.87 99.81,111.13 99.63,109.81ZM49.82,75.2C49.2,84.34 46.71,111.57 44.94,112.81C43.17,114.06 34.34,108.55 33.4,106.99C32.46,105.43 35.89,89.43 36.93,80.6C37.54,75.4 39.76,49.44 40.57,47.45C41.04,46.31 43.51,47.89 45.91,49.06C48.4,50.27 50.83,50.99 51.09,51.82C51.61,53.49 50.44,66.06 49.82,75.2ZM73.4,116.25C72.15,116.77 67.89,116.92 63.52,116.97C58.7,117.02 54.72,116.6 53.07,115.13C51.1,113.36 52.61,101.3 53.44,89.24C54.07,80.1 55.65,54.6 55.92,53.18C56.23,51.52 59.9,53.18 64.06,53.18C68.84,53.18 72.26,51.75 72.47,53.52C72.68,55.29 72.98,65.86 73.39,72.41C73.81,78.96 75.57,111.69 75.57,113.45C75.57,115.21 74.65,115.73 73.4,116.25ZM93.67,107.83C93.36,110.22 83.79,114.46 82.66,113.54C81.1,112.29 79.75,95.36 78.92,86.73C78.09,78.11 76.74,54.04 76.74,52.65C76.74,51.39 79.32,51.03 81.38,49.87C83.53,48.66 85.46,47.13 85.78,47.66C86.4,48.7 87.13,61.9 88.59,77.27C90.03,92.66 93.98,105.44 93.67,107.83Z" style="fill:#93b1bb;fill-rule:nonzero;" /><path d="M55.54,32.1L42.6,36.13C42.6,36.13 40.82,37.34 39.84,38.38C39,39.27 38.15,40.39 38.15,40.39C38.15,40.39 48.75,49.04 63.34,49.53C77.93,50.02 88.45,40.59 88.45,40.59C88.45,40.59 87.45,39.18 86.23,38.32C85.01,37.47 79.6,34.54 79.6,34.54L55.54,32.1Z" style="fill:#93b1bb;fill-rule:nonzero;" /><path d="M42.17,32.53C42.17,32.53 40.44,34.52 41.8,37.17C43.35,40.19 50.22,45.58 63.35,45.23C79.53,44.8 84.31,37.66 84.6,37.17C85.03,36.44 85.52,35.34 85.58,34C85.64,32.66 84.73,31.86 84.73,31.86C84.73,31.86 88.58,27.34 88.7,20.87C88.82,14.4 85.7,7.8 75.01,4.75C65.77,2.11 54.31,3.77 48.88,5.48C44.42,6.88 37.88,11.59 37.77,20.13C37.65,29.41 42.17,32.53 42.17,32.53Z" style="fill:#aeb0b1;fill-rule:nonzero;" /><path d="M42.82,14.65C42.54,19.16 47.61,22.29 63.72,22.57C81,22.88 83.87,17.2 83.99,14.82C84.14,11.98 81,5.42 63.48,5.3C47.17,5.18 42.97,12.14 42.82,14.65Z" style="fill:#e0e0e0;fill-rule:nonzero;" /><path d="M44.3,34.42C43.7,35.83 49.09,42.27 63.19,42.27C77.29,42.27 83.47,36.04 82.21,34.54C81.36,33.52 75.36,38.87 63.46,38.57C47.28,38.15 45.16,32.41 44.3,34.42Z" style="fill:#e0e0e0;fill-rule:nonzero;" /><path d="M48.99,14.35C49.05,16.24 51.13,16.58 53.17,16.58C55.46,16.58 57.23,15.81 57.26,14.44C57.29,13.08 56.11,11.81 52.93,11.93C50.26,12.04 48.94,12.99 48.99,14.35Z" style="fill:#5e6367;fill-rule:nonzero;" /><path d="M59.11,9.28C59.01,10.76 60.66,11.76 63.26,11.6C66.2,11.43 67.32,10.45 67.35,9.18C67.38,7.75 65.43,6.92 63.08,7.01C60.72,7.11 59.2,7.92 59.11,9.28Z" style="fill:#5e6367;fill-rule:nonzero;" /><path d="M69.23,15.28C69.32,17.14 71.62,17.42 73.22,17.35C76.19,17.23 77.09,16.27 77.09,14.93C77.09,13.23 75.14,12.55 73.22,12.51C71.3,12.47 69.14,13.43 69.23,15.28Z" style="fill:#5e6367;fill-rule:nonzero;" /></svg>
